X: 25
T: Song Concerning the Sun and Moon
C: Teton Sioux band 1911-1914
N: Derived from sioux025.krn
O: South Dakota, U.S.A.
N: Teton Sioux Music by Frances Densmore, 1918
Z: transcribed to **kern format by Craig Sapp
L: 1/8
M: 2/4
Q: 1/4=58
K: Gb clef=bass
%%linebreak <none>
G G G G [I:setbarnb 1]||  
[M:3/4]A< G G< E (E D) ||  
[M:2/4]B, D D D ||  
[M:3/4]E< D D< B, (B, A,) ||  
[M:2/4]G, G, G, G, ||  
[M:3/4]A,< G, G,< E, (E, D,) ||  
[M:2/4]B,, D, D, D, ||  
[M:3/4]E,< D, D,< B,,B,,2 | 
B,,2B,,4 |]  



